**kern	**silbe	**kern	**silbe	**harmony	**phrase	**leadinstrument	**rhyme	**timestamp	**harte
*ICvox	*	*ICvox	*	*M4/4	*	*	*	*	*M4/4
*VRlead*VRharmonize	*	*VRlead*VRharmonize	*	*	*	*	*	*	*
*Hstimme	*	*Nstimme	*	*	*	*	*	*	*
*C:	*	*C:	*	*a:	*a:	*a:	*	*a:	*a:
*M4/4	*	*M4/4	*	*	*	*	*	*	*
*clefG2	*	*clefG2	*	*	*	*	*	*	*
r;	.	r;	.	1r;	.	r	.	0	N.C.
r;	.	r;	.	1r;	.	r	.	1.695	N.C.
r;	.	r;	.	1r;	.	r	.	3.389	N.C.
r;	.	r;	.	1r;	.	r	.	5.084	N.C.
r;	.	r;	.	1r;	.	r	.	6.779	N.C.
r;	.	r;	.	1r;	.	r	.	8.474	N.C.
r;	.	r;	.	1r;	.	r	.	10.168	N.C.
r;	.	r;	.	1r;	.	r	.	11.863	N.C.
r;	.	r;	.	1r;	.	r	.	13.558	N.C.
r;	.	r;	.	1r;	.	r	.	15.252	N.C.
r;	.	r;	.	1r;	.	r	.	16.947	N.C.
r;	.	r;	.	1r;	.	r	.	18.642	N.C.
r;	.	r;	.	1r;	.	r	.	20.337	N.C.
r;	.	r;	.	1r;	.	r	.	22.031	N.C.
r;	.	r;	.	1r;	.	r	.	23.726	N.C.
=1	=1	=1	=1	=1	=1	=1	=1	=1	=1
1r	.	1r	.	1CM	newline	acoustic guitar	.	25.421	C:maj (G C E)
=2	=2	=2	=2	=2	=2	=2	=2	=2	=2
1r	.	1r	.	1F#dm	.	acoustic guitar	.	27.117	F#:hdim7
=3	=3	=3	=3	=3	=3	=3	=3	=3	=3
1r	.	1r	.	1EM	.	acoustic guitar	.	28.814	E:maj
r;	.	r;	.	1r;	.	r	.	30.51	N.C.
=4	=4	=4	=4	=4	=4	=4	=4	=4	=4
1r	.	1r	.	1Dm	.	r	.	32.207	D:min
=5	=5	=5	=5	=5	=5	=5	=5	=5	=5
1r	.	1r	.	1EM	.	r	.	33.904	E:maj
=6	=6	=6	=6	=6	=6	=6	=6	=6	=6
1r	.	1r	.	1r;	.	r	.	35.6	N.C.
=6	=6	=6	=6	=6	=6	=6	=6	=6	=6
*>Letter>B	*>Letter>B	*>Letter>B	*>Letter>B	*>Letter>B	*>Letter>B	*>Letter>B	*>Letter>B	*>Letter>B	*>Letter>B
*>Label>Intro	*>Label>Intro	*>Label>Intro	*>Label>Intro	*>Label>Intro	*>Label>Intro	*>Label>Intro	*>Label>Intro	*>Label>Intro	*>Label>Intro
r;	.	r;	.	1Am	newline	acoustic guitar	.	37.297	A:min
=7	=7	=7	=7	=7	=7	=7	=7	=7	=7
1r	.	1r	.	1FM	.	acoustic guitar	.	39.206	F:maj
=8	=8	=8	=8	=8	=8	=8	=8	=8	=8
1r	.	1r	.	1Am	.	acoustic guitar	.	41.114	A:min
=9	=9	=9	=9	=9	=9	=9	=9	=9	=9
1r	.	1r	.	2.FM	.	acoustic guitar	.	43.023	F:maj
.	.	.	.	4GM	.	acoustic guitar	.	44.455	G:maj
=10	=10	=10	=10	=10	=10	=10	=10	=10	=10
1r	.	1r	.	1Am	newline	electric guitar	.	44.932	A:min
=11	=11	=11	=11	=11	=11	=11	=11	=11	=11
1r	.	1r	.	1FM	.	electric guitar	.	46.824	F:maj
=12	=12	=12	=12	=12	=12	=12	=12	=12	=12
1r	.	1r	.	1Am	.	electric guitar	.	48.717	A:min
=13	=13	=13	=13	=13	=13	=13	=13	=13	=13
1r	.	1r	.	2.FM	.	electric guitar	.	50.609	F:maj
.	.	.	.	4GM	.	electric guitar	.	52.028	G:maj
=14	=14	=14	=14	=14	=14	=14	=14	=14	=14
1r	.	1r	.	1Am	newline	electric guitar	.	52.501	A:min
=15	=15	=15	=15	=15	=15	=15	=15	=15	=15
1r	.	1r	.	1GM	.	electric guitar	.	54.363	G:maj
=16	=16	=16	=16	=16	=16	=16	=16	=16	=16
*clefF4	*	*	*	*	*	*	*	*	*
2r	.	1r	.	1FM	.	electric guitar	.	56.224	F:maj
8r	.	.	.	.	.	.	.	.	.
8A	We	.	.	.	.	.	.	.	.
4c	may	.	.	.	.	.	.	.	.
=17	=17	=17	=17	=17	=17	=17	=17	=17	=17
*>Letter>C	*>Letter>C	*>Letter>C	*>Letter>C	*>Letter>C	*>Letter>C	*>Letter>C	*>Letter>C	*>Letter>C	*>Letter>C
*>Label>Verse	*>Label>Verse	*>Label>Verse	*>Label>Verse	*>Label>Verse	*>Label>Verse	*>Label>Verse	*>Label>Verse	*>Label>Verse	*>Label>Verse
8e-	still	1r	.	1Am	newline	voice	.	58.086	A:min
4d	have	.	.	.	.	.	.	.	.
8c	time,	.	.	.	.	.	A	.	.
4d	_	.	.	.	.	.	.	.	.
8A	we	.	.	.	.	.	.	.	.
[8c	might	.	.	.	.	.	.	.	.
=18	=18	=18	=18	=18	=18	=18	=18	=18	=18
8c]	_	1r	.	1CM	.	voice	.	59.975	C:maj
8e	still	.	.	.	.	.	.	.	.
8d	get	.	.	.	.	.	.	.	.
[8c	by	.	.	.	.	.	A	.	.
8c]	_	.	.	.	.	.	.	.	.
8r	.	.	.	.	.	.	.	.	.
16r	.	.	.	.	.	.	.	.	.
16A	Ev-	.	.	.	.	.	.	.	.
8A	-'ry	.	.	.	.	.	.	.	.
=19	=19	=19	=19	=19	=19	=19	=19	=19	=19
8gq	_	.	.	.	.	.	.	.	.
8a	time	1r	.	1Dm	.	voice	.	61.864	D:min
8a	I	.	.	.	.	.	.	.	.
8a	think	.	.	.	.	.	.	.	.
8a	a	.	.	.	.	.	.	.	.
8dq	_	.	.	.	.	.	.	.	.
8e	bout	.	.	.	.	.	.	.	.
8d	it	.	.	.	.	.	.	.	.
8c	I	.	.	.	.	.	.	.	.
[8d	want	.	.	.	.	.	.	.	.
=20	=20	=20	=20	=20	=20	=20	=20	=20	=20
8d]	_	1r	.	1EM	.	voice	.	63.752	E:maj
8d	to	.	.	.	.	.	.	.	.
8c	_	.	.	.	.	.	.	.	.
8dq	_	.	.	.	.	.	.	.	.
8e-	cry	.	.	.	.	.	A	.	.
8d	_	.	.	.	.	.	.	.	.
4r	.	.	.	.	.	.	.	.	.
8A	With	.	.	.	.	.	.	.	.
=21	=21	=21	=21	=21	=21	=21	=21	=21	=21
16AQ	_	.	.	.	.	.	.	.	.
16dQ	_	.	.	.	.	.	.	.	.
4e	bombs	1r	.	1Am	.	voice	.	65.641	A:min
8d	and	.	.	.	.	.	.	.	.
8c	the	.	.	.	.	.	.	.	.
8d	de-	.	.	.	.	.	.	.	.
8A	-vil	.	.	.	.	.	.	.	.
8.r	.	.	.	.	.	.	.	.	.
16A	and	.	.	.	.	.	.	.	.
=22	=22	=22	=22	=22	=22	=22	=22	=22	=22
6A	the	1r	.	1CM	.	voice	.	67.53	C:maj
6A	kids	.	.	.	.	.	.	.	.
6A	keep	.	.	.	.	.	.	.	.
8c	co-	.	.	.	.	.	B	.	.
8d	-ming	.	.	.	.	.	.	.	.
8r	.	.	.	.	.	.	.	.	.
8A	no	.	.	.	.	.	.	.	.
=23	=23	=23	=23	=23	=23	=23	=23	=23	=23
8gq	_	.	.	.	.	.	.	.	.
8a	where	1r	.	1Dm	.	voice	.	69.419	D:min
8a	to	.	.	.	.	.	.	.	.
8a	breathe	.	.	.	.	.	.	.	.
8dq	_	.	.	.	.	.	.	.	.
8e-	ea	.	.	.	.	.	.	.	.
8d	_	.	.	.	.	.	.	.	.
8c	sy,	.	.	.	.	.	.	.	.
8c	no	.	.	.	.	.	.	.	.
[8d	time	.	.	.	.	.	.	.	.
=24	=24	=24	=24	=24	=24	=24	=24	=24	=24
4d]	_	1r	.	1EM	.	voice	.	71.308	E:maj
16d	to	.	.	.	.	.	.	.	.
8c	be	.	.	.	.	.	.	.	.
8dq	_	.	.	.	.	.	.	.	.
[16e	young	.	.	.	.	.	B	.	.
4.e]	_	.	.	.	.	.	.	.	.
8c	_	.	.	.	.	.	.	.	.
=25	=25	=25	=25	=25	=25	=25	=25	=25	=25
*>Letter>E	*>Letter>E	*>Letter>E	*>Letter>E	*>Letter>E	*>Letter>E	*>Letter>E	*>Letter>E	*>Letter>E	*>Letter>E
*>Label>Transition	*>Label>Transition	*>Label>Transition	*>Label>Transition	*>Label>Transition	*>Label>Transition	*>Label>Transition	*>Label>Transition	*>Label>Transition	*>Label>Transition
8d	_	1r	.	2.Am	newline	electric guitar	.	73.196	A:min
8c	_	.	.	.	.	.	.	.	.
[2.A	_	.	.	.	.	.	.	.	.
.	.	.	.	4DM	.	electric guitar	.	74.614	D:maj/5
=26	=26	=26	=26	=26	=26	=26	=26	=26	=26
4A]	_	1r	.	1DM	.	electric guitar	.	75.086	D:maj/5
4r	.	.	.	.	.	.	.	.	.
2r	.	.	.	.	.	.	.	.	.
=27	=27	=27	=27	=27	=27	=27	=27	=27	=27
*clefG2	*	*	*	*	*	*	*	*	*
1r	.	1r	.	2.Am	.	electric guitar	.	76.976	A:min
.	.	.	.	4DM	.	electric guitar	.	78.394	D:maj/5
=28	=28	=28	=28	=28	=28	=28	=28	=28	=28
2r	.	1r	.	1DM	.	electric guitar	.	78.866	D:maj/5
8r	.	.	.	.	.	.	.	.	.
8a	But	.	.	.	.	.	.	.	.
4a	I	.	.	.	.	.	.	.	.
=29	=29	=29	=29	=29	=29	=29	=29	=29	=29
*>Letter>D	*>Letter>D	*>Letter>D	*>Letter>D	*>Letter>D	*>Letter>D	*>Letter>D	*>Letter>D	*>Letter>D	*>Letter>D
*>Label>Prechorus	*>Label>Prechorus	*>Label>Prechorus	*>Label>Prechorus	*>Label>Prechorus	*>Label>Prechorus	*>Label>Prechorus	*>Label>Prechorus	*>Label>Prechorus	*>Label>Prechorus
8cc	tell	1r	.	2Dm	newline	voice	.	80.756	D:min
8cc	my	.	.	.	.	.	.	.	.
8r	.	.	.	.	.	.	.	.	.
8dd	self	.	.	.	.	.	.	.	.
8r	.	.	.	2Em	.	voice	.	81.683	E:min
8dd	that	.	.	.	.	.	.	.	.
8dd	I	.	.	.	.	.	.	.	.
8cc	was	.	.	.	.	.	.	.	.
=30	=30	=30	=30	=30	=30	=30	=30	=30	=30
8ee	do-	1r	.	2CM	.	voice	.	82.61	C:maj
8dd	-ing	.	.	.	.	.	.	.	.
8cc	al	.	.	.	.	.	.	.	.
8gq	_	.	.	.	.	.	.	.	.
[8a	right	.	.	.	.	.	A	.	.
8a]	_	.	.	2FM	.	voice	.	83.536	F:maj
4r	.	.	.	.	.	.	.	.	.
8a	there's	.	.	.	.	.	.	.	.
=31	=31	=31	=31	=31	=31	=31	=31	=31	=31
8dd	no-	1r	.	1Dm	.	voice	.	84.463	D:min
8cc	-thing	.	.	.	.	.	.	.	.
8dd	left	.	.	.	.	.	.	.	.
8cc	to	.	.	.	.	.	.	.	.
8dd	do	.	.	.	.	.	.	.	.
8cc	_	.	.	.	.	.	.	.	.
8cc	to	.	.	.	.	.	.	.	.
8dd#q	_	.	.	.	.	.	.	.	.
[8ee	night	.	.	.	.	.	A	.	.
=32	=32	=32	=32	=32	=32	=32	=32	=32	=32
4ee]	_	1r	.	1EM	.	voice	.	86.316	E:maj
4r	.	.	.	.	.	.	.	.	.
8r	.	.	.	.	.	.	.	.	.
8a	but	.	.	.	.	.	.	.	.
8cc	go	.	.	.	.	.	.	.	.
16cc	cra	.	.	.	.	.	.	.	.
[16dd	_	.	.	.	.	.	.	.	.
=33	=33	=33	=33	=33	=33	=33	=33	=33	=33
*>Letter>B	*>Letter>B	*>Letter>B	*>Letter>B	*>Letter>B	*>Letter>B	*>Letter>B	*>Letter>B	*>Letter>B	*>Letter>B
*>Label>Chorus	*>Label>Chorus	*>Label>Chorus	*>Label>Chorus	*>Label>Chorus	*>Label>Chorus	*>Label>Chorus	*>Label>Chorus	*>Label>Chorus	*>Label>Chorus
8.dd]	_	1r	.	1Am	newline	voice	.	88.169	A:min
16cc	_	.	.	.	.	.	.	.	.
8a	zy	.	.	.	.	.	.	.	.
[8a	on	.	.	.	.	.	.	.	.
8a]	_	.	.	.	.	.	.	.	.
8a	you!	.	.	.	.	.	.	.	.
8r	.	.	.	.	.	.	.	.	.
8r	.	.	.	.	.	.	.	.	.
=34	=34	=34	=34	=34	=34	=34	=34	=34	=34
1r	.	1r	.	2.FM	.	voice	.	90.009	F:maj
.	.	.	.	4GM	.	voice	.	91.389	G:maj
=35	=35	=35	=35	=35	=35	=35	=35	=35	=35
8ccq	_	.	.	.	.	.	.	.	.
4dd	Cra	1r	.	1Am	.	voice	.	91.849	A:min
16cc	_	.	.	.	.	.	.	.	.
8.a	_	.	.	.	.	.	.	.	.
8a	zy	.	.	.	.	.	.	.	.
4a	on	.	.	.	.	.	.	.	.
[8cc	you	.	.	.	.	.	.	.	.
=36	=36	=36	=36	=36	=36	=36	=36	=36	=36
4cc]	_	1r	.	2.FM	.	voice	.	93.688	F:maj
4r	.	.	.	.	.	.	.	.	.
8r	.	.	.	.	.	.	.	.	.
16a	Lem-	.	.	.	.	.	.	.	.
16a	-me	.	.	.	.	.	.	.	.
4cc	go	.	.	4GM	.	voice	.	95.068	G:maj
=37	=37	=37	=37	=37	=37	=37	=37	=37	=37
8cc	cra	1r	.	1Am	newline	voice	.	95.528	A:min
4dd	_	.	.	.	.	.	.	.	.
8cc	zy,	.	.	.	.	.	.	.	.
8.dd	cra-	.	.	.	.	.	.	.	.
16cc	-zy	.	.	.	.	.	.	.	.
8a	on	.	.	.	.	.	.	.	.
[8g	you	.	.	.	.	.	.	.	.
=38	=38	=38	=38	=38	=38	=38	=38	=38	=38
2.g]	_	1r	.	1GM	.	voice	.	97.364	G:maj
8cc	a-	.	.	.	.	.	.	.	.
[8f	-oh	.	.	.	.	.	.	.	.
=39	=39	=39	=39	=39	=39	=39	=39	=39	=39
4.f_	_	1r	.	1FM	.	voice	.	99.199	F:maj
16f]	_	.	.	.	.	.	.	.	.
[16e	_	.	.	.	.	.	.	.	.
2e_	_	.	.	.	.	.	.	.	.
=40	=40	=40	=40	=40	=40	=40	=40	=40	=40
*>Letter>C	*>Letter>C	*>Letter>C	*>Letter>C	*>Letter>C	*>Letter>C	*>Letter>C	*>Letter>C	*>Letter>C	*>Letter>C
*>Label>Verse	*>Label>Verse	*>Label>Verse	*>Label>Verse	*>Label>Verse	*>Label>Verse	*>Label>Verse	*>Label>Verse	*>Label>Verse	*>Label>Verse
1e]	_	8d	love	1Am	newline	voice	.	101.035	A:min
.	.	8e	_	.	.	.	.	.	.
.	.	8d	is	.	.	.	.	.	.
.	.	8c	the	.	.	.	.	.	.
.	.	8dq	_	.	.	.	.	.	.
.	.	8e	ev-	.	.	.	.	.	.
.	.	8d	-'ning	.	.	.	.	.	.
.	.	4c	breeze	.	.	.	.	.	.
=41	=41	=41	=41	=41	=41	=41	=41	=41	=41
1r	.	8~e	tou-	1CM	.	voice	.	102.886	C:maj
.	.	8d	-ching	.	.	.	.	.	.
.	.	8c	your	.	.	.	.	.	.
.	.	8d	skin	.	.	.	C	.	.
.	.	4e	_	.	.	.	.	.	.
.	.	8r	.	.	.	.	.	.	.
.	.	8A	the	.	.	.	.	.	.
=42	=42	=42	=42	=42	=42	=42	=42	=42	=42
.	.	8gq	_	.	.	.	.	.	.
1r	.	8a	gen-	1Dm	.	voice	.	104.737	D:min
.	.	8a	-tle	.	.	.	.	.	.
.	.	4g	sweet	.	.	.	.	.	.
.	.	8dq	_	.	.	.	.	.	.
.	.	8e	sing-	.	.	.	.	.	.
.	.	8d	-ing	.	.	.	.	.	.
.	.	8c	of	.	.	.	.	.	.
.	.	[8d	leaves	.	.	.	.	.	.
=43	=43	=43	=43	=43	=43	=43	=43	=43	=43
1r	.	8d]	_	1EM	.	voice	.	106.588	E:maj
.	.	8d	in	.	.	.	.	.	.
.	.	8c	the	.	.	.	.	.	.
.	.	8dq	_	.	.	.	.	.	.
.	.	8e-	wind	.	.	.	C	.	.
.	.	4d	_	.	.	.	.	.	.
.	.	8r	.	.	.	.	.	.	.
.	.	8A	The	.	.	.	.	.	.
=44	=44	=44	=44	=44	=44	=44	=44	=44	=44
1r	.	8e	whis-	1Am	.	voice	.	108.44	A:min
.	.	8d	-per	.	.	.	.	.	.
.	.	8c	tha	.	.	.	.	.	.
.	.	8d	calls	.	.	.	.	.	.
.	.	4c	_	.	.	.	.	.	.
.	.	8d	af-	.	.	.	.	.	.
.	.	8c	-ter	.	.	.	.	.	.
=45	=45	=45	=45	=45	=45	=45	=45	=45	=45
.	.	8dq	_	.	.	.	.	.	.
1r	.	8e-	you	1CM	.	voice	.	110.291	C:maj
.	.	8d	in	.	.	.	.	.	.
.	.	8c	the	.	.	.	.	.	.
.	.	8d	night	.	.	.	A	.	.
.	.	4e	_	.	.	.	.	.	.
.	.	8r	.	.	.	.	.	.	.
.	.	8A	and	.	.	.	.	.	.
=46	=46	=46	=46	=46	=46	=46	=46	=46	=46
1r	.	8a	kis-	1Dm	.	voice	.	112.142	D:min
.	.	8a	-ses	.	.	.	.	.	.
.	.	8a	your	.	.	.	.	.	.
.	.	8dq	_	.	.	.	.	.	.
.	.	8e-	ear	.	.	.	.	.	.
.	.	8d	_	.	.	.	.	.	.
.	.	8c	in	.	.	.	.	.	.
.	.	8c	the	.	.	.	.	.	.
.	.	[8d	ear	.	.	.	.	.	.
=47	=47	=47	=47	=47	=47	=47	=47	=47	=47
1r	.	8d]	_	1EM	.	voice	.	113.993	E:maj
.	.	8d	ly	.	.	.	.	.	.
.	.	8c	moon	.	.	.	.	.	.
.	.	8dq	_	.	.	.	.	.	.
.	.	[8e	light	.	.	.	A	.	.
.	.	4.e]	_	.	.	.	.	.	.
.	.	8c	_	.	.	.	.	.	.
=48	=48	=48	=48	=48	=48	=48	=48	=48	=48
*>Letter>E	*>Letter>E	*>Letter>E	*>Letter>E	*>Letter>E	*>Letter>E	*>Letter>E	*>Letter>E	*>Letter>E	*>Letter>E
*>Label>Transition	*>Label>Transition	*>Label>Transition	*>Label>Transition	*>Label>Transition	*>Label>Transition	*>Label>Transition	*>Label>Transition	*>Label>Transition	*>Label>Transition
1r	.	8d	_	2.Am	newline	electric guitar	.	115.844	A:min
.	.	8c	_	.	.	.	.	.	.
.	.	[4A	_	.	.	.	.	.	.
.	.	4A]	_	.	.	.	.	.	.
*	*	*clefG2	*	*	*	*	*	*	*
.	.	[4a	_	4DM	.	electric guitar	.	117.245	D:maj/5
=49	=49	=49	=49	=49	=49	=49	=49	=49	=49
1r	.	1a_	_	1DM	.	electric guitar	.	117.712	D:maj/5
=50	=50	=50	=50	=50	=50	=50	=50	=50	=50
1r	.	2a]	_	2.Am	.	electric guitar	.	119.579	A:min
.	.	2r	.	.	.	.	.	.	.
.	.	.	.	4DM	.	electric guitar	.	120.98	D:maj/5
=51	=51	=51	=51	=51	=51	=51	=51	=51	=51
*clefG2	*	*	*	*	*	*	*	*	*
2r	.	1r	.	1DM	.	electric guitar	.	121.447	D:maj/5
4r	.	.	.	.	.	.	.	.	.
8r	.	.	.	.	.	.	.	.	.
8a	And	.	.	.	.	.	.	.	.
=52	=52	=52	=52	=52	=52	=52	=52	=52	=52
*>Letter>D	*>Letter>D	*>Letter>D	*>Letter>D	*>Letter>D	*>Letter>D	*>Letter>D	*>Letter>D	*>Letter>D	*>Letter>D
*>Label>Prechorus	*>Label>Prechorus	*>Label>Prechorus	*>Label>Prechorus	*>Label>Prechorus	*>Label>Prechorus	*>Label>Prechorus	*>Label>Prechorus	*>Label>Prechorus	*>Label>Prechorus
8cc	you	1r	.	2Dm	newline	voice	.	123.315	D:min
8cc	don't	.	.	.	.	.	.	.	.
8cc	need	.	.	.	.	.	.	.	.
8cc	to	.	.	.	.	.	.	.	.
8dd	won-	.	.	2Em	.	voice	.	124.235	E:min
8dd	-der	.	.	.	.	.	.	.	.
8r	.	.	.	.	.	.	.	.	.
8cc	you're	.	.	.	.	.	.	.	.
=53	=53	=53	=53	=53	=53	=53	=53	=53	=53
8ee	do-	1r	.	2CM	.	voice	.	125.156	C:maj
4dd	-ing	.	.	.	.	.	.	.	.
[8cc	fine	.	.	.	.	.	A	.	.
8cc]	_	.	.	2FM	.	voice	.	126.076	F:maj
4r	.	.	.	.	.	.	.	.	.
8~c	and	.	.	.	.	.	.	.	.
=54	=54	=54	=54	=54	=54	=54	=54	=54	=54
4dd	my	1r	.	1Dm	.	voice	.	126.997	D:min
8dd	love,	.	.	.	.	.	.	.	.
6cc	the	.	.	.	.	.	.	.	.
6dd	plea-	.	.	.	.	.	.	.	.
6cc	-sure's	.	.	.	.	.	.	.	.
8dd#q	_	.	.	.	.	.	.	.	.
[8ee	mine,	.	.	.	.	.	A	.	.
=55	=55	=55	=55	=55	=55	=55	=55	=55	=55
2ee]	_	1r	.	1EM	.	voice	.	128.838	E:maj
8ee	let	.	.	.	.	.	.	.	.
8ee	me	.	.	.	.	.	.	.	.
8gg	go	.	.	.	.	.	.	.	.
16dd#	cra	.	.	.	.	.	.	.	.
[16ee	_	.	.	.	.	.	.	.	.
=56	=56	=56	=56	=56	=56	=56	=56	=56	=56
*>Letter>B	*>Letter>B	*>Letter>B	*>Letter>B	*>Letter>B	*>Letter>B	*>Letter>B	*>Letter>B	*>Letter>B	*>Letter>B
*>Label>Chorus	*>Label>Chorus	*>Label>Chorus	*>Label>Chorus	*>Label>Chorus	*>Label>Chorus	*>Label>Chorus	*>Label>Chorus	*>Label>Chorus	*>Label>Chorus
8.ee]	_	1r	.	1Am	newline	voice	.	130.679	A:min
16cc	_	.	.	.	.	.	.	.	.
8a	zy	.	.	.	.	.	.	.	.
[8a	on	.	.	.	.	.	.	.	.
8a]	_	.	.	.	.	.	.	.	.
4a	you	.	.	.	.	.	.	.	.
8r	.	.	.	.	.	.	.	.	.
=57	=57	=57	=57	=57	=57	=57	=57	=57	=57
2r	.	1r	.	2.FM	.	voice	.	132.495	F:maj
8r	.	.	.	.	.	.	.	.	.
8ff#q	_	.	.	.	.	.	.	.	.
8.gg	Cra	.	.	.	.	.	.	.	.
.	.	.	.	4GM	.	voice	.	133.857	G:maj
8ddq	_	.	.	.	.	.	.	.	.
8.ee	_	.	.	.	.	.	.	.	.
=58	=58	=58	=58	=58	=58	=58	=58	=58	=58
16dd	_	1r	.	1Am	.	voice	.	134.31	A:min
16cc	_	.	.	.	.	.	.	.	.
8a	_	.	.	.	.	.	.	.	.
8a	zy	.	.	.	.	.	.	.	.
[8a	on	.	.	.	.	.	.	.	.
4.a]	_	.	.	.	.	.	.	.	.
8cc	you!	.	.	.	.	.	.	.	.
=59	=59	=59	=59	=59	=59	=59	=59	=59	=59
2r	.	1r	.	2.FM	.	voice	.	136.126	F:maj
8r	.	.	.	.	.	.	.	.	.
16a	Lem-	.	.	.	.	.	.	.	.
16a	-me	.	.	.	.	.	.	.	.
4cc	go	.	.	4GM	.	voice	.	137.488	G:maj
=60	=60	=60	=60	=60	=60	=60	=60	=60	=60
8cc	cra	1r	.	1Am	newline	voice	.	137.942	A:min
4dd	_	.	.	.	.	.	.	.	.
8cc	zy,	.	.	.	.	.	.	.	.
8.dd	cra-	.	.	.	.	.	.	.	.
16cc	-zy	.	.	.	.	.	.	.	.
8a	on	.	.	.	.	.	.	.	.
[8g	you,	.	.	.	.	.	.	.	.
=61	=61	=61	=61	=61	=61	=61	=61	=61	=61
2.g]	_	1r	.	1GM	.	voice	.	139.798	G:maj
8cc	a-	.	.	.	.	.	.	.	.
[8f	-oh	.	.	.	.	.	.	.	.
=62	=62	=62	=62	=62	=62	=62	=62	=62	=62
4.f_	_	1r	.	1FM	.	voice	.	141.654	F:maj
16f]	_	.	.	.	.	.	.	.	.
[16e	_	.	.	.	.	.	.	.	.
2e_	_	.	.	.	.	.	.	.	.
=63	=63	=63	=63	=63	=63	=63	=63	=63	=63
2e]	_	1r	.	1Am	.	voice	.	143.51	A:min
2r	.	.	.	.	.	.	.	.	.
=64	=64	=64	=64	=64	=64	=64	=64	=64	=64
*>Letter>F	*>Letter>F	*>Letter>F	*>Letter>F	*>Letter>F	*>Letter>F	*>Letter>F	*>Letter>F	*>Letter>F	*>Letter>F
*>Label>Bridge	*>Label>Bridge	*>Label>Bridge	*>Label>Bridge	*>Label>Bridge	*>Label>Bridge	*>Label>Bridge	*>Label>Bridge	*>Label>Bridge	*>Label>Bridge
*clefF4	*	*	*	*A:	*A:	*A:	*	*A:	*A:
8d#q	_	.	.	.	.	.	.	.	.
4.e	Wild	1r	.	1F#mm	newline	voice	.	145.366	F#:min7
[8c#	man's	.	.	.	.	.	.	.	.
8c#]	_	.	.	.	.	.	.	.	.
4c#	world	.	.	.	.	.	.	.	.
8c#	is	.	.	.	.	.	.	.	.
=65	=65	=65	=65	=65	=65	=65	=65	=65	=65
8f#	cry-	1r	.	1DM	.	voice	.	147.181	D:maj
8e	-ing	.	.	.	.	.	.	.	.
4d	in	.	.	.	.	.	.	.	.
8e	pain	.	.	.	.	.	D	.	.
4f#	_	.	.	.	.	.	.	.	.
8r	.	.	.	.	.	.	.	.	.
=66	=66	=66	=66	=66	=66	=66	=66	=66	=66
*clefG2	*	*	*	*	*	*	*	*	*
8g#	what	1r	.	1C#m	.	voice	.	148.996	C#:min
16e	you	.	.	.	.	.	.	.	.
[16e	gon	.	.	.	.	.	.	.	.
16e]	_	.	.	.	.	.	.	.	.
16c#	na	.	.	.	.	.	.	.	.
[8c#	do	.	.	.	.	.	.	.	.
8c#]	_	.	.	.	.	.	.	.	.
8e	when	.	.	.	.	.	.	.	.
8e	ev-	.	.	.	.	.	.	.	.
8e	-'ry-	.	.	.	.	.	.	.	.
=67	=67	=67	=67	=67	=67	=67	=67	=67	=67
8a	-bo-	1r	.	1DM	.	voice	.	150.811	D:maj
8g#	-dy's	.	.	.	.	.	.	.	.
4f#	in-	.	.	.	.	.	.	.	.
8.f#	-sane?	.	.	.	.	.	D	.	.
[16a	_	.	.	.	.	.	.	.	.
8a]	_	.	.	.	.	.	.	.	.
8f#	_	.	.	.	.	.	.	.	.
=68	=68	=68	=68	=68	=68	=68	=68	=68	=68
8b	So	1r	.	1C#m	newline	voice	.	152.627	C#:min
16g#	a-	.	.	.	.	.	.	.	.
[16g#	-fraid	.	.	.	.	.	D	.	.
8g#]	_	.	.	.	.	.	.	.	.
8e	of	.	.	.	.	.	.	.	.
8e	one,	.	.	.	.	.	.	.	.
8e	who's	.	.	.	.	.	.	.	.
16e	so	.	.	.	.	.	.	.	.
8e	a-	.	.	.	.	.	.	.	.
16b	-fraid	.	.	.	.	.	D	.	.
=69	=69	=69	=69	=69	=69	=69	=69	=69	=69
4.cc#	_	1r	.	1DM	.	voice	.	154.459	D:maj
8b	of	.	.	.	.	.	.	.	.
8a	you	.	.	.	.	.	E	.	.
8r	.	.	.	.	.	.	.	.	.
8g#	what	.	.	.	.	.	.	.	.
8a	you	.	.	.	.	.	.	.	.
=70	=70	=70	=70	=70	=70	=70	=70	=70	=70
16a	gon	1r	.	1C#m	.	voice	.	156.292	C#:min
4.b	_	.	.	.	.	.	.	.	.
16a	na	.	.	.	.	.	.	.	.
4.g#	do	.	.	.	.	.	E	.	.
16a	_	.	.	.	.	.	.	.	.
16g#	_	.	.	.	.	.	.	.	.
=71	=71	=71	=71	=71	=71	=71	=71	=71	=71
[1d [1f#	_	1r	.	1Bmm	.	voice	.	158.125	B:min7/5
=72	=72	=72	=72	=72	=72	=72	=72	=72	=72
2.d] 2.f#]	_	1r	.	1Bmm	newline	voice	.	159.958	B:min7
[4c# [4e	_	.	.	.	.	.	.	.	.
=73	=73	=73	=73	=73	=73	=73	=73	=73	=73
1c#_ 1e_	_	1r	.	1AM	.	voice	.	161.813	A:maj
=74	=74	=74	=74	=74	=74	=74	=74	=74	=74
2.c#] 2.e]	_	1r	.	1AM	.	voice	.	163.669	A:maj
4r	.	.	.	.	.	.	.	.	.
=75	=75	=75	=75	=75	=75	=75	=75	=75	=75
1r	.	1e [1b	Ah	1EM	newline	voice	.	165.524	E:maj
=76	=76	=76	=76	=76	=76	=76	=76	=76	=76
1r	.	[2c# 2f# 2b_	_	1EM	.	voice	.	167.363	E:maj
.	.	2c#] 2g# 2b_	_	.	.	.	.	.	.
=77	=77	=77	=77	=77	=77	=77	=77	=77	=77
2r	.	1c# [1a 1b_	_	1EM	.	voice	.	169.202	E:maj
8r	.	.	.	.	.	.	.	.	.
8ddq	_	.	.	.	.	.	.	.	.
[4.ee	Ooh	.	.	.	.	.	.	.	.
=78	=78	=78	=78	=78	=78	=78	=78	=78	=78
2.ee_	_	1d 1a] 1b]	_	1EMm	.	voice	.	171.041	E:7
8ee]	_	.	.	.	.	.	.	.	.
8dd	cra-	.	.	.	.	.	.	.	.
=79	=79	=79	=79	=79	=79	=79	=79	=79	=79
*>Letter>B	*>Letter>B	*>Letter>B	*>Letter>B	*>Letter>B	*>Letter>B	*>Letter>B	*>Letter>B	*>Letter>B	*>Letter>B
*>Label>Chorus	*>Label>Chorus	*>Label>Chorus	*>Label>Chorus	*>Label>Chorus	*>Label>Chorus	*>Label>Chorus	*>Label>Chorus	*>Label>Chorus	*>Label>Chorus
*a:	*	*	*	*a:	*a:	*a:	*	*a:	*a:
8ee	_	1r	.	1Am	newline	voice	.	172.88	A:min
16dd	_	.	.	.	.	.	.	.	.
16cc	_	.	.	.	.	.	.	.	.
8a	_	.	.	.	.	.	.	.	.
8a	-zy	.	.	.	.	.	.	.	.
4a	on	.	.	.	.	.	.	.	.
4a	you	.	.	.	.	.	.	.	.
=80	=80	=80	=80	=80	=80	=80	=80	=80	=80
2r	.	1r	.	2.FM	.	voice	.	174.699	F:maj
8r	.	.	.	.	.	.	.	.	.
8ff#q	_	.	.	.	.	.	.	.	.
8.gg	cra	.	.	.	.	.	.	.	.
.	.	.	.	4GM	.	voice	.	176.064	G:maj
8ddq	_	.	.	.	.	.	.	.	.
8.ee	_	.	.	.	.	.	.	.	.
=81	=81	=81	=81	=81	=81	=81	=81	=81	=81
16dd	_	1r	.	1Am	.	voice	.	176.519	A:min
16cc	_	.	.	.	.	.	.	.	.
8a	_	.	.	.	.	.	.	.	.
8a	zy	.	.	.	.	.	.	.	.
[8a	on	.	.	.	.	.	.	.	.
4.a]	_	.	.	.	.	.	.	.	.
8cc	you!	.	.	.	.	.	.	.	.
=82	=82	=82	=82	=82	=82	=82	=82	=82	=82
2r	.	1r	.	2.FM	.	voice	.	178.338	F:maj
8r	.	.	.	.	.	.	.	.	.
16a	Lem-	.	.	.	.	.	.	.	.
16a	-me	.	.	.	.	.	.	.	.
4cc	go	.	.	4GM	.	voice	.	179.703	G:maj
=83	=83	=83	=83	=83	=83	=83	=83	=83	=83
8cc	cra	1r	.	1Am	newline	voice	.	180.158	A:min
4dd	_	.	.	.	.	.	.	.	.
8cc	zy,	.	.	.	.	.	.	.	.
8.dd	cra-	.	.	.	.	.	.	.	.
16cc	-zy	.	.	.	.	.	.	.	.
8a	on	.	.	.	.	.	.	.	.
[8g	you,	.	.	.	.	.	.	.	.
=84	=84	=84	=84	=84	=84	=84	=84	=84	=84
2.g]	_	1r	.	1GM	.	voice	.	181.952	G:maj
8~cc	a-	.	.	.	.	.	.	.	.
[8f	-oh	.	.	.	.	.	.	.	.
=85	=85	=85	=85	=85	=85	=85	=85	=85	=85
4.f_	_	2r	.	1FM	.	voice	.	183.746	F:maj
16f]	_	.	.	.	.	.	.	.	.
[16e	_	.	.	.	.	.	.	.	.
2e_	_	4r	.	.	.	.	.	.	.
.	.	16r	.	.	.	.	.	.	.
.	.	8d	I	.	.	.	.	.	.
.	.	16e-	_	.	.	.	.	.	.
=86	=86	=86	=86	=86	=86	=86	=86	=86	=86
*>Letter>C	*>Letter>C	*>Letter>C	*>Letter>C	*>Letter>C	*>Letter>C	*>Letter>C	*>Letter>C	*>Letter>C	*>Letter>C
*>Label>Verse	*>Label>Verse	*>Label>Verse	*>Label>Verse	*>Label>Verse	*>Label>Verse	*>Label>Verse	*>Label>Verse	*>Label>Verse	*>Label>Verse
4e]	_	4e-	_	1Am	newline	.	.	185.541	A:min
4r	.	8d	was	.	.	.	.	.	.
.	.	8c	a	.	.	.	.	.	.
2r	.	16e-	wil-	.	.	.	.	.	.
.	.	8d	-low	.	.	.	.	.	.
.	.	[16c	last	.	.	.	.	.	.
.	.	8c]	_	.	.	.	.	.	.
.	.	8d	night	.	.	.	.	.	.
=87	=87	=87	=87	=87	=87	=87	=87	=87	=87
1r	.	8c	_	1CM	.	.	.	187.379	C:maj
.	.	16d	in	.	.	.	.	.	.
.	.	[16c	a	.	.	.	.	.	.
.	.	8c]	_	.	.	.	.	.	.
.	.	8dq	_	.	.	.	.	.	.
.	.	[8e	dream	.	.	.	F	.	.
.	.	8e]	_	.	.	.	.	.	.
.	.	4r	.	.	.	.	.	.	.
.	.	8A	I	.	.	.	.	.	.
=88	=88	=88	=88	=88	=88	=88	=88	=88	=88
.	.	8gq	_	.	.	.	.	.	.
1r	.	8a	bent	1Dm	.	.	.	189.217	D:min
.	.	[8g	down	.	.	.	.	.	.
.	.	8g]	_	.	.	.	.	.	.
.	.	8d	o	.	.	.	.	.	.
.	.	8e	_	.	.	.	.	.	.
.	.	16d	ver	.	.	.	.	.	.
.	.	[16c	a	.	.	.	.	.	.
.	.	8c]	_	.	.	.	.	.	.
.	.	[8d	clear	.	.	.	.	.	.
=89	=89	=89	=89	=89	=89	=89	=89	=89	=89
1r	.	4d]	_	1EM	.	.	.	191.056	E:maj
.	.	16d	run-	.	.	.	.	.	.
.	.	8.c	-ning	.	.	.	.	.	.
.	.	8dq	_	.	.	.	.	.	.
.	.	8e	stream	.	.	.	F	.	.
.	.	8d	_	.	.	.	.	.	.
.	.	4r	.	.	.	.	.	.	.
=90	=90	=90	=90	=90	=90	=90	=90	=90	=90
1r	.	8e	I	1Am	.	.	.	192.894	A:min
.	.	8d	sang	.	.	.	.	.	.
.	.	8c	a	.	.	.	.	.	.
.	.	8d	song	.	.	.	.	.	.
.	.	8c	_	.	.	.	.	.	.
.	.	16d	that	.	.	.	.	.	.
.	.	[16c	I	.	.	.	.	.	.
.	.	16c]	_	.	.	.	.	.	.
.	.	8e-q	_	.	.	.	.	.	.
.	.	[8.d	heard	.	.	.	.	.	.
=91	=91	=91	=91	=91	=91	=91	=91	=91	=91
1r	.	8d]	_	1CM	.	.	.	194.733	C:maj
.	.	8d	up	.	.	.	.	.	.
.	.	8c	a-	.	.	.	.	.	.
.	.	8d	-bove	.	.	.	G	.	.
.	.	4e	_	.	.	.	.	.	.
.	.	8.r	.	.	.	.	.	.	.
.	.	16A	And	.	.	.	.	.	.
=92	=92	=92	=92	=92	=92	=92	=92	=92	=92
1r	.	16A	you	1Dm	.	.	.	196.571	D:min
*	*	*clefG2	*	*	*	*	*	*	*
.	.	16r	.	.	.	.	.	.	.
.	.	8a	kept	.	.	.	.	.	.
.	.	8a	me	.	.	.	.	.	.
.	.	16a	a-	.	.	.	.	.	.
.	.	16g	-live	.	.	.	.	.	.
.	.	4a	_	.	.	.	.	.	.
.	.	8a	with	.	.	.	.	.	.
.	.	8a	your	.	.	.	.	.	.
=93	=93	=93	=93	=93	=93	=93	=93	=93	=93
1r	.	8r	.	1EM	.	.	.	198.409	E:maj
.	.	8cc	sweet	.	.	.	.	.	.
.	.	8r	.	.	.	.	.	.	.
.	.	8dd	flo-	.	.	.	.	.	.
.	.	8cc	-wing	.	.	.	.	.	.
.	.	8ddq	_	.	.	.	.	.	.
.	.	[4.ee	love	.	.	.	G	.	.
=94	=94	=94	=94	=94	=94	=94	=94	=94	=94
*>Letter>B	*>Letter>B	*>Letter>B	*>Letter>B	*>Letter>B	*>Letter>B	*>Letter>B	*>Letter>B	*>Letter>B	*>Letter>B
*>Label>Chorus	*>Label>Chorus	*>Label>Chorus	*>Label>Chorus	*>Label>Chorus	*>Label>Chorus	*>Label>Chorus	*>Label>Chorus	*>Label>Chorus	*>Label>Chorus
1ee	Cra-	2.ee]	Cra	1Am	newline	.	.	200.248	A:min
.	.	8g	_	.	.	.	.	.	.
.	.	8g	zy!	.	.	.	.	.	.
=95	=95	=95	=95	=95	=95	=95	=95	=95	=95
4~b	-!	1r	.	2.FM	.	.	.	202.075	F:maj
4r	.	.	.	.	.	.	.	.	.
8r	.	.	.	.	.	.	.	.	.
8a	Yeah!	.	.	.	.	.	.	.	.
4g	_	.	.	4GM	.	.	.	203.446	G:maj
=96	=96	=96	=96	=96	=96	=96	=96	=96	=96
8gg	Cra	1r	.	1Am	.	.	.	203.902	A:min
8ee	_	.	.	.	.	.	.	.	.
16dd	_	.	.	.	.	.	.	.	.
16cc	_	.	.	.	.	.	.	.	.
8a	_	.	.	.	.	.	.	.	.
8a	zy	.	.	.	.	.	.	.	.
4a	on	.	.	.	.	.	.	.	.
8a	you	.	.	.	.	.	.	.	.
=97	=97	=97	=97	=97	=97	=97	=97	=97	=97
2r	.	1r	.	2.FM	.	.	.	205.73	F:maj
8r	.	.	.	.	.	.	.	.	.
16a	Lem-	.	.	.	.	.	.	.	.
16a	-me	.	.	.	.	.	.	.	.
4cc	go	.	.	4GM	.	.	.	207.1	G:maj
=98	=98	=98	=98	=98	=98	=98	=98	=98	=98
8cc	cra	1r	.	1Am	newline	.	.	207.557	A:min
4dd	_	.	.	.	.	.	.	.	.
8cc	zy,	.	.	.	.	.	.	.	.
8.dd	cra-	.	.	.	.	.	.	.	.
16cc	-zy	.	.	.	.	.	.	.	.
8a	on	.	.	.	.	.	.	.	.
[8g	you	.	.	.	.	.	.	.	.
=99	=99	=99	=99	=99	=99	=99	=99	=99	=99
2.g]	_	1r	.	1GM	.	.	.	209.394	G:maj
8cc	a-	.	.	.	.	.	.	.	.
[8f	-oh	.	.	.	.	.	.	.	.
=100	=100	=100	=100	=100	=100	=100	=100	=100	=100
4f_	_	1r	.	1FM	.	.	.	211.232	F:maj
8.f]	_	.	.	.	.	.	.	.	.
16e	_	.	.	.	.	.	.	.	.
8r	.	.	.	.	.	.	.	.	.
8ddq	_	.	.	.	.	.	.	.	.
4.ee	cra	.	.	.	.	.	.	.	.
=101	=101	=101	=101	=101	=101	=101	=101	=101	=101
*>Letter>B	*>Letter>B	*>Letter>B	*>Letter>B	*>Letter>B	*>Letter>B	*>Letter>B	*>Letter>B	*>Letter>B	*>Letter>B
*>Label>Chorus	*>Label>Chorus	*>Label>Chorus	*>Label>Chorus	*>Label>Chorus	*>Label>Chorus	*>Label>Chorus	*>Label>Chorus	*>Label>Chorus	*>Label>Chorus
8ddq	_	.	.	.	.	.	.	.	.
6ee	_	1r	.	1Am	newline	.	.	213.069	A:min
8ddq	_	.	.	.	.	.	.	.	.
12ee	_	.	.	.	.	.	.	.	.
12dd	_	.	.	.	.	.	.	.	.
12cc	_	.	.	.	.	.	.	.	.
[12a	zy	.	.	.	.	.	.	.	.
8a]	_	.	.	.	.	.	.	.	.
[4.a	on	.	.	.	.	.	.	.	.
=102	=102	=102	=102	=102	=102	=102	=102	=102	=102
8a]	_	1r	.	2.FM	.	.	.	214.868	F:maj
8a	you!	.	.	.	.	.	.	.	.
4r	.	.	.	.	.	.	.	.	.
8r	.	.	.	.	.	.	.	.	.
8ff#q	_	.	.	.	.	.	.	.	.
8.gg	Cra	.	.	.	.	.	.	.	.
.	.	.	.	4GM	.	.	.	216.218	G:maj
8ddq	_	.	.	.	.	.	.	.	.
8.ee	_	.	.	.	.	.	.	.	.
=103	=103	=103	=103	=103	=103	=103	=103	=103	=103
16dd	_	1r	.	1Am	.	.	.	216.668	A:min
16cc	_	.	.	.	.	.	.	.	.
8a	_	.	.	.	.	.	.	.	.
8a	zy	.	.	.	.	.	.	.	.
[8a	on	.	.	.	.	.	.	.	.
4.a]	_	.	.	.	.	.	.	.	.
8cc	you	.	.	.	.	.	.	.	.
=104	=104	=104	=104	=104	=104	=104	=104	=104	=104
2r	.	1r	.	2.FM	.	.	.	218.467	F:maj
8r	.	.	.	.	.	.	.	.	.
16a	Lem-	.	.	.	.	.	.	.	.
16a	-me	.	.	.	.	.	.	.	.
4cc	go	.	.	4GM	.	.	.	219.817	G:maj
=105	=105	=105	=105	=105	=105	=105	=105	=105	=105
8cc	cra	1r	.	1Am	newline	voice	.	220.267	A:min
4dd	_	.	.	.	.	.	.	.	.
8cc	zy,	.	.	.	.	.	.	.	.
8.dd	cra-	.	.	.	.	.	.	.	.
16cc	-zy	.	.	.	.	.	.	.	.
8a	on	.	.	.	.	.	.	.	.
[8g	you	.	.	.	.	.	.	.	.
=106	=106	=106	=106	=106	=106	=106	=106	=106	=106
1g]	_	1r	.	1GM	.	voice	.	222.082	G:maj
=107	=107	=107	=107	=107	=107	=107	=107	=107	=107
2f	oh	1r	.	1FM	.	voice	.	223.898	F:maj
[2e	yeah	.	.	.	.	.	.	.	.
=108	=108	=108	=108	=108	=108	=108	=108	=108	=108
*>Letter>B	*>Letter>B	*>Letter>B	*>Letter>B	*>Letter>B	*>Letter>B	*>Letter>B	*>Letter>B	*>Letter>B	*>Letter>B
*>Label>Solo	*>Label>Solo	*>Label>Solo	*>Label>Solo	*>Label>Solo	*>Label>Solo	*>Label>Solo	*>Label>Solo	*>Label>Solo	*>Label>Solo
2e]	_	1r	.	1Am	newline	electric guitar	.	225.713	A:min
2r	.	.	.	.	.	.	.	.	.
=109	=109	=109	=109	=109	=109	=109	=109	=109	=109
1r	.	1r	.	2.FM	.	electric guitar	.	227.523	F:maj
.	.	.	.	4GM	.	electric guitar	.	228.881	G:maj
=110	=110	=110	=110	=110	=110	=110	=110	=110	=110
1r	.	1r	.	1Am	.	electric guitar	.	229.333	A:min
=111	=111	=111	=111	=111	=111	=111	=111	=111	=111
1r	.	1r	.	2.FM	.	electric guitar	.	231.143	F:maj
.	.	.	.	4GM	.	electric guitar	.	232.5	G:maj
=112	=112	=112	=112	=112	=112	=112	=112	=112	=112
1r	.	1r	.	1Am	newline	electric guitar	.	232.953	A:min
=113	=113	=113	=113	=113	=113	=113	=113	=113	=113
1r	.	1r	.	1GM	.	electric guitar	.	234.75	G:maj
=114	=114	=114	=114	=114	=114	=114	=114	=114	=114
1r	.	1r	.	1FM	.	electric guitar	.	236.547	F:maj
=115	=115	=115	=115	=115	=115	=115	=115	=115	=115
1r	.	1r	.	1Am	.	electric guitar	.	238.344	A:min
=116	=116	=116	=116	=116	=116	=116	=116	=116	=116
*>Letter>F	*>Letter>F	*>Letter>F	*>Letter>F	*>Letter>F	*>Letter>F	*>Letter>F	*>Letter>F	*>Letter>F	*>Letter>F
*>Label>Solo	*>Label>Solo	*>Label>Solo	*>Label>Solo	*>Label>Solo	*>Label>Solo	*>Label>Solo	*>Label>Solo	*>Label>Solo	*>Label>Solo
*A:	*	*	*	*A:	*A:	*A:	*	*A:	*A:
1r	.	1r	.	1F#mm	newline	electric guitar	.	240.141	F#:min7
=117	=117	=117	=117	=117	=117	=117	=117	=117	=117
1r	.	1r	.	1DM	.	electric guitar	.	241.982	D:maj
=118	=118	=118	=118	=118	=118	=118	=118	=118	=118
1r	.	1r	.	1C#m	.	electric guitar	.	243.823	C#:min
=119	=119	=119	=119	=119	=119	=119	=119	=119	=119
1r	.	1r	.	1DM	.	electric guitar	.	245.664	D:maj
=120	=120	=120	=120	=120	=120	=120	=120	=120	=120
1r	.	1r	.	1C#m	newline	electric guitar	.	247.505	C#:min
=121	=121	=121	=121	=121	=121	=121	=121	=121	=121
1r	.	1r	.	1DM	.	electric guitar	.	249.325	D:maj
=122	=122	=122	=122	=122	=122	=122	=122	=122	=122
1r	.	1r	.	1C#m	.	electric guitar	.	251.145	C#:min
=123	=123	=123	=123	=123	=123	=123	=123	=123	=123
1r	.	1r	.	1Bmm	.	electric guitar	.	252.966	B:min7/5
=124	=124	=124	=124	=124	=124	=124	=124	=124	=124
1r	.	1r	.	1Bmm	newline	electric guitar	.	254.786	B:min7
=125	=125	=125	=125	=125	=125	=125	=125	=125	=125
1r	.	1r	.	1AM	.	electric guitar	.	256.643	A:maj
=126	=126	=126	=126	=126	=126	=126	=126	=126	=126
1r	.	1r	.	1AM	.	electric guitar	.	258.499	A:maj
=127	=127	=127	=127	=127	=127	=127	=127	=127	=127
1r	.	1e [1b	Ah!	1EM	newline	electric guitar	.	260.356	E:maj
=128	=128	=128	=128	=128	=128	=128	=128	=128	=128
1r	.	2c# 2f# 2b_	_	1EM	.	electric guitar	.	262.163	E:maj
.	.	2c# 2g# 2b]	_	.	.	.	.	.	.
=129	=129	=129	=129	=129	=129	=129	=129	=129	=129
1r	.	1c# [1a [1b	_	1EM	.	electric guitar	.	263.97	E:maj
=130	=130	=130	=130	=130	=130	=130	=130	=130	=130
1r	.	1d 1a] 1b]	_	1EMm	.	electric guitar	.	265.777	E:7
=131	=131	=131	=131	=131	=131	=131	=131	=131	=131
*>Letter>B	*>Letter>B	*>Letter>B	*>Letter>B	*>Letter>B	*>Letter>B	*>Letter>B	*>Letter>B	*>Letter>B	*>Letter>B
*>Label>Chorus	*>Label>Chorus	*>Label>Chorus	*>Label>Chorus	*>Label>Chorus	*>Label>Chorus	*>Label>Chorus	*>Label>Chorus	*>Label>Chorus	*>Label>Chorus
*a:	*	*	*	*a:	*a:	*a:	*	*a:	*a:
8ddq	_	.	.	.	.	.	.	.	.
8ee	Cra	1r	.	1Am	newline	voice	.	267.584	A:min
16dd	_	.	.	.	.	.	.	.	.
16cc	_	.	.	.	.	.	.	.	.
8a	zy	.	.	.	.	.	.	.	.
[8a	on	.	.	.	.	.	.	.	.
4.a]	_	.	.	.	.	.	.	.	.
8a	you	.	.	.	.	.	.	.	.
=132	=132	=132	=132	=132	=132	=132	=132	=132	=132
2r	.	1r	.	2.FM	.	voice	.	269.401	F:maj
4r	.	.	.	.	.	.	.	.	.
8ffq	_	.	.	.	.	.	.	.	.
8gg	Cra	.	.	4GM	.	voice	.	270.764	G:maj
8ddq	_	.	.	.	.	.	.	.	.
8ee	_	.	.	.	.	.	.	.	.
=133	=133	=133	=133	=133	=133	=133	=133	=133	=133
16dd	_	1r	.	1Am	.	voice	.	271.218	A:min
16cc	_	.	.	.	.	.	.	.	.
8a	_	.	.	.	.	.	.	.	.
8a	zy	.	.	.	.	.	.	.	.
[8a	on	.	.	.	.	.	.	.	.
4.a]	_	.	.	.	.	.	.	.	.
8cc	you	.	.	.	.	.	.	.	.
=134	=134	=134	=134	=134	=134	=134	=134	=134	=134
2r	.	1r	.	2.FM	.	voice	.	273.035	F:maj
8r	.	.	.	.	.	.	.	.	.
16a	Lem-	.	.	.	.	.	.	.	.
16a	-me	.	.	.	.	.	.	.	.
4cc	go	.	.	4GM	.	voice	.	274.397	G:maj
=135	=135	=135	=135	=135	=135	=135	=135	=135	=135
8cc	cra	1r	.	1Am	newline	voice	.	274.851	A:min
4dd	_	.	.	.	.	.	.	.	.
8cc	zy,	.	.	.	.	.	.	.	.
8.dd	cra-	.	.	.	.	.	.	.	.
16cc	-zy	.	.	.	.	.	.	.	.
8a	on	.	.	.	.	.	.	.	.
[8g	you	.	.	.	.	.	.	.	.
=136	=136	=136	=136	=136	=136	=136	=136	=136	=136
8~aq	_	.	.	.	.	.	.	.	.
1g]	_	1r	.	1GM	.	voice	.	276.668	G:maj
=137	=137	=137	=137	=137	=137	=137	=137	=137	=137
[4.f	-oh	1r	.	1FM	.	voice	.	278.485	F:maj
16f]	_	.	.	.	.	.	.	.	.
[16e	_	.	.	.	.	.	.	.	.
2e_	_	.	.	.	.	.	.	.	.
=138	=138	=138	=138	=138	=138	=138	=138	=138	=138
1e]	_	1r	.	1Am	.	voice	.	280.301	A:min
r;	.	r;	.	1r;	.	r	.	290.293	N.C.
r;	.	r;	.	1r;	.	r	.	291.51	N.C.
*-	*-	*-	*-	*-	*-	*-	*-	*-	*-
!!!BillboardChartDate: 1978/02/11, 1976/06/12
!!!BillboardPeak: 35, 35
!!!BillboardWeeksOnChart: 19, 19
!!!COC: Heart
!!!ENC: Nathaniel Condit-Schultz
!!!EST: Awating manual error checking and editing.
!!!OTL: Crazy On You
!!!RDF**chordsym: original McGill chord annotation + (implied pitch class set, with bass pitch in first position)
!!!RDF**harmony: **recip + pitch class of root + harmonic quality
!!!RDF**leadinstrument: original McGill primary instrumentation annotation
!!!RDF**phrase: newline = linebreak in original McGill transcription
!!!RDF**timestamp: McGill audio timestamp in seconds
!!!RDT: 2017/01/12/
!!!SampleActualRank: 100,  49
!!!SampleID#: 33, 73
!!!SampleTargetRank: 99, 49
